X: 1
T:Newcastle Beer
M:6/8
L:1/8
K:C
G|ccC EFG|Adc(BA)B|ccCEFG|AcBc2G|ccCEFG|AdcBAB|ccCEFG|AdBC2||c|edc (ed)c
|edc(ed)c|dBcdBc|dfed2d|ccCEFG|AdcBAB|ccCEFG|AdBc2||
% Output from ABC2Win  Version 2.1 i on 3/2/2000
